docs/evaluations/runs_phase9/IMG_1850/predictive_profile.pp3
[Version]
AppVersion=5.11
Version=351

[General]
ColorLabel=0
InTrash=false

[Exposure]
Auto=false
Clip=0.02
Compensation=0
Brightness=0
Contrast=0
Saturation=4
Black=0
HighlightCompr=6
HighlightComprThreshold=9
ShadowCompr=50

[White Balance]
Setting=Camera
Temperature=5500
Green=1.0
Equal=1.0

[Crop]
Enabled=false

[Resize]
Enabled=false

[Sharpening]
Enabled=true
Method=usm
Radius=0.50
Amount=150
Threshold=20;80;2000;1200;

[Color Management]
InputProfile=(camera)
WorkingProfile=ProPhoto
OutputProfile=RT_sRGB

[Directional Pyramid Denoising]
Enabled=false

[Luminance Curve]
Enabled=true
Contrast=12
AvoidColorShift=true
lhCurve=5;0;0;0.16;0.10;0.46;0.52;0.76;0.88;1;1;
hhCurve=5;0;0;0.28;0.24;0.60;0.52;0.82;0.74;1;0.90;

[Vibrance]
Enabled=true
Pastels=8
Saturated=4
ProtectSkins=true
AvoidColorShift=true

[Shadows & Highlights]
Highlights=-6
HighlightTonalWidth=55
Radius=46
