docs/evaluations/runs_phase10/IMG_3709/predictive_profile.pp3
[Version]
AppVersion=5.11
Version=351

[General]
ColorLabel=0
InTrash=false

[Exposure]
Auto=false
Clip=0.02
Compensation=0.16
Brightness=0
Contrast=0
Saturation=2
Black=0
HighlightCompr=0
HighlightComprThreshold=0
ShadowCompr=50

[White Balance]
Setting=Camera
Temperature=5500
Green=1.0
Equal=1.0

[Crop]
Enabled=false

[Resize]
Enabled=false

[Sharpening]
Enabled=true
Method=usm
Radius=0.50
Amount=150
Threshold=20;80;2000;1200;

[Color Management]
InputProfile=(camera)
WorkingProfile=ProPhoto
OutputProfile=RT_sRGB

[Directional Pyramid Denoising]
Enabled=false

[Luminance Curve]
Enabled=true
Contrast=9
AvoidColorShift=true
lhCurve=5;0;0;0.14;0.22;0.40;0.52;0.72;0.84;1;1;
hhCurve=5;0;0;0.30;0.28;0.66;0.60;0.86;0.82;1;0.96;

[Vibrance]
Enabled=true
Pastels=4
Saturated=1
