docs/evaluations/runs_phase5/IMG_1279/predictive_profile.pp3
[Version]
AppVersion=5.11
Version=351

[General]
ColorLabel=0
InTrash=false

[Exposure]
Auto=false
Clip=0.02
Compensation=0.358
Brightness=0
Contrast=12
Saturation=4
Black=0
HighlightCompr=0
HighlightComprThreshold=0
ShadowCompr=50
CurveMode=Standard
Curve=3;0;0;0.45;0.52;1;1;
Curve2=0;

[White Balance]
Setting=Camera
Temperature=5500
Green=1.0
Equal=1.0

[Crop]
Enabled=false

[Resize]
Enabled=false

[Sharpening]
Enabled=true
Method=usm
Radius=0.50
Amount=165
Threshold=20;80;2000;1200;

[Color Management]
InputProfile=(camera)
WorkingProfile=ProPhoto
OutputProfile=RT_sRGB

[Directional Pyramid Denoising]
Enabled=false

[Luminance Curve]
Enabled=true
Contrast=8
AvoidColorShift=true

[SharpenMicro]
Enabled=true
Amount=8

[Vibrance]
Enabled=true
Pastels=8
Saturated=4
ProtectSkins=true
AvoidColorShift=true
