docs/reference/pp3_evidence/Exposure.HighlightComprThreshold/control_low.pp3
[Version]
AppVersion=5.11
Version=351

[General]
ColorLabel=0
InTrash=false

[Exposure]
Auto=false
Clip=0.02
Compensation=0.0
Brightness=0
Contrast=0
Saturation=0
Black=0
HighlightCompr=0
HighlightComprThreshold=15
ShadowCompr=50

[HLRecovery]
Enabled=false
Method=Blend

[White Balance]
Setting=Camera
Temperature=5500
Green=1.0
Equal=1.0

[Crop]
Enabled=false
X=0
Y=0
W=4000
H=6000
FixedRatio=false
Ratio=3:2
Orientation=As Image
Guide=Frame

[Resize]
Enabled=false
Scale=1
AppliesTo=Cropped Area
Method=Lanczos
DataSpecified=3
Width=1440
Height=900
AllowUpscaling=false

[Sharpening]
Enabled=true
Contrast=0
Method=usm
Radius=0.50
Amount=200
Threshold=20;80;2000;1200;
AutoContrast=false
OnlyEdges=false
EdgedetectionRadius=1.90
EdgeTolerance=1800
HalocontrolEnabled=false
HalocontrolAmount=85
DeconvRadius=0.75
DeconvAmount=100
DeconvAutoRadius=true

[Color Management]
InputProfile=(camera)
ToneCurve=false
ApplyLookTable=false
ApplyBaselineExposureOffset=true
ApplyHueSatMap=true
DCPIlluminant=0
WorkingProfile=ProPhoto
WorkingTRC=none
OutputProfile=RT_sRGB

[Directional Pyramid Denoising]
Enabled=false
Enhance=false
Median=false
Luma=0
Ldetail=0
Chroma=15
RedChro=0
BlueChro=0
